X: 21394
T: Kerryman's Fancy, The
R: slip jig
M: 9/8
K: Dmajor
|:e|fdB AFA dcB|BAG FGA BGE|FGE DFA dAF|Ged cBc d2:|
e|f2d dcd fed|BGE Eed cBA|f2d dcd fed|efg ABc d2e|
f2d dcd fed|BGE Eed cBA|faf gec dAF|Ged cBc d3||

